assets/static/svgs/logos/logo-slots-full.svg

<svg width="1em" height="auto"  viewBox="0 0 124 34" fill="none" xmlns="http://www.w3.org/2000/svg">
<symbol id="item"
width="1em"
height="auto"
viewBox="0 0 124 34"
fill="none"
>
 <path d="M47.6553 13.0932C45.1843 10.3654 42.1035 9.01761 38.381 9.01761C35.0435 9.01761 32.1553 10.0766 29.8126 12.1946C27.1812 14.5694 25.8654 17.618 25.8654 21.2443C25.8654 24.3892 26.8923 27.117 28.9462 29.3634C31.4172 32.0911 34.4979 33.4389 38.3168 33.4389C41.5901 33.4389 44.382 32.3799 46.7246 30.2619C49.3882 27.8551 50.7039 24.9027 50.7039 21.4048C50.7039 18.1315 49.677 15.3395 47.6553 13.0932Z" fill="#FC3586"/> <path d="M89.0528 30.5828C89.0528 32.2515 87.705 33.5673 86.0362 33.5673C84.3675 33.5673 83.0518 32.2195 83.0518 30.5507C83.0518 29.7484 83.3727 29.0745 83.9503 28.4648C84.5279 27.8872 85.2339 27.5983 86.0362 27.5983C87.705 27.6304 89.0528 28.9462 89.0528 30.5828Z" fill="#00E8E8"/> <path d="M97.3644 9.49898V32.9896H92.8396V10.8789L97.3644 9.49898Z" fill="#6300FF"/> <path d="M120.823 12.8044C122.941 15.147 124 17.9389 124 21.2122C124 25.0311 122.62 28.1118 119.924 30.5828C117.678 32.6366 114.95 33.6636 111.805 33.6636C108.147 33.6636 105.13 32.3478 102.756 29.7164C100.638 27.3737 99.5787 24.4855 99.5787 21.148C99.5787 17.4576 100.959 14.3447 103.654 11.8737C105.901 9.81987 108.693 8.82505 111.998 8.82505C115.464 8.82505 118.416 10.1408 120.823 12.8044ZM107.826 14.0238C105.355 15.5 104.136 17.8748 104.136 21.2122C104.136 23.9721 105.002 26.1222 106.735 27.6625C108.147 28.9462 109.848 29.5559 111.805 29.5559C114.052 29.5559 115.913 28.7536 117.389 27.1491C118.769 25.6729 119.443 23.6832 119.443 21.1801C119.443 18.4524 118.577 16.3665 116.876 14.8261C115.464 13.5424 113.763 12.9327 111.741 12.9327C110.297 12.9327 108.981 13.2857 107.826 14.0238Z" fill="currentColor"/> <path d="M98.1667 3.04865C98.1667 3.88302 97.8779 4.58903 97.3002 5.16667C96.7226 5.7764 95.9845 6.06523 95.118 6.06523C93.3851 6.06523 92.0373 4.7174 92.0373 2.98448C92.0373 2.15011 92.3582 1.4441 92.9358 0.866463C93.5134 0.288824 94.2516 0 95.0859 0C96.8189 0 98.1667 1.34783 98.1667 3.04865Z" fill="#FFA300"/> <path d="M19.2547 3.91512L19.1584 3.9793V32.9896H23.6832V2.5352L19.2547 3.91512Z" fill="currentColor"/> <path d="M11.4886 19.736L9.24225 18.8696C7.6056 18.2598 6.61077 17.7785 6.16149 17.3613C5.71222 17.0083 5.51967 16.4306 5.51967 15.6926C5.51967 14.0238 6.8996 12.8364 8.92134 12.8364C10.2371 12.8364 11.3923 13.4783 12.4193 14.7619L16.4306 13.5104C14.7298 10.3975 12.2588 8.82505 9.04969 8.82505C6.89959 8.82505 5.07039 9.49897 3.53002 10.8147C2.02174 12.0983 1.28364 13.7671 1.28364 15.8209C1.28364 18.6449 2.95238 20.6988 6.25776 21.9503L8.72878 22.913C10.2692 23.4907 11.2961 24.0041 11.7774 24.4534C12.2267 24.8706 12.4834 25.4482 12.4834 26.2184C12.4834 27.0528 12.1946 27.7909 11.617 28.4648C10.9752 29.235 10.0124 29.6201 8.72878 29.6201C6.70704 29.6201 5.48759 28.6894 4.10767 26.0259L0.160454 27.2774C1.7971 31.5776 4.65321 33.7278 8.63251 33.7278C10.9431 33.7278 12.9006 33.0217 14.4731 31.6097C16.1418 30.1335 16.9762 28.2723 16.9762 26.058C16.9441 23.1056 15.3396 21.2122 11.4886 19.736Z" fill="currentColor"/> <path d="M6.00104 10.2692C6.00104 11.9379 4.65322 13.2536 2.98449 13.2536C1.31575 13.2536 0 11.9058 0 10.2371C0 9.43479 0.320927 8.76088 0.898566 8.15115C1.47621 7.57351 2.18221 7.28468 2.98449 7.28468C4.65322 7.28468 6.00104 8.60041 6.00104 10.2692Z" fill="#F7CD00"/> <path d="M60.8768 29.5238C60.2671 29.5238 59.8178 29.4596 59.4327 29.3313C59.4006 29.3313 59.3685 29.2992 59.3364 29.2992C58.9514 29.1708 58.5984 29.0424 58.1812 28.5611C57.4752 27.7267 57.6035 25.5124 57.6035 25.0952L57.5394 16.1739V13.5424L57.4431 11.8737V11.4886L57.5714 9.49898V2.69566L53.0466 4.10767V9.46687L53.0145 11.8737L53.0466 13.5424L53.0145 25.5445C53.0145 25.6087 53.0145 25.705 53.0145 25.8333V26.2826C53.0145 28.9783 53.5921 30.3582 54.7153 31.5776C55.7743 32.7329 57.8924 33.5031 59.6253 33.5994C59.7215 33.5994 59.8178 33.5994 59.9141 33.5994C60.1387 33.6315 60.3313 33.6315 60.5559 33.6315L64.6636 29.5238H60.8768Z" fill="currentColor"/> <path d="M75.382 19.736L73.1356 18.8696C71.499 18.2598 70.5042 17.7785 70.0549 17.3613C69.6056 17.0083 69.4131 16.4306 69.4131 15.6926C69.4131 14.0238 70.793 12.8364 72.8147 12.8364C74.1304 12.8364 75.2857 13.4783 76.3126 14.7298L80.324 13.4783C78.6232 10.3654 76.1522 8.82505 72.9431 8.82505C70.793 8.82505 68.9638 9.49897 67.4234 10.8147C65.9151 12.0983 65.177 13.7671 65.177 15.8209C65.177 18.6449 66.8458 20.6988 70.1512 21.9503L72.6222 22.913C74.1625 23.4907 75.1895 24.0041 75.6708 24.4534C76.1201 24.8706 76.3768 25.4482 76.3768 26.2184C76.3768 27.0528 76.088 27.7909 75.5104 28.4648C74.8685 29.235 73.9058 29.6201 72.6222 29.6201L68.4824 29.588L64.3748 33.6957H69.028C69.7661 33.7277 70.5042 33.6957 71.2743 33.6957H71.3706C71.7557 33.6957 72.1729 33.6957 72.558 33.6957C74.8685 33.6957 76.8261 32.9897 78.3986 31.5776C80.0673 30.1015 80.9017 28.2402 80.9017 26.0259C80.8696 23.1056 79.2329 21.2122 75.382 19.736Z" fill="currentColor"/> <path d="M61.4545 9.43479H50.2547V13.6387H61.4545V9.43479Z" fill="#00F490"/> 
</symbol>
</svg>

<svg width="1em" height="auto"    viewBox="0 0 124 34" fill="none" xmlns="http://www.w3.org/2000/svg">
<symbol id="item"
width="1em"
height="auto"
viewBox="0 0 124 34"
fill="none"
>
<path d="M47.655 13.093c-2.47-2.728-5.552-4.075-9.274-4.075-3.337 0-6.226 1.059-8.568 3.177-2.632 2.374-3.948 5.423-3.948 9.05 0 3.144 1.027 5.872 3.081 8.118 2.471 2.728 5.552 4.076 9.37 4.076 3.274 0 6.066-1.06 8.409-3.177 2.663-2.407 3.979-5.36 3.979-8.857 0-3.274-1.027-6.066-3.049-8.312Z" fill="#FC3586"/><path d="M89.053 30.583c0 1.669-1.348 2.984-3.017 2.984-1.668 0-2.984-1.348-2.984-3.016 0-.803.32-1.476.898-2.086a2.86 2.86 0 0 1 2.086-.867c1.669.032 3.017 1.348 3.017 2.985Z" fill="#00E8E8"/><path d="M97.364 9.499v23.49H92.84V10.88l4.524-1.38Z" fill="#6300FF"/><path d="M120.823 12.804c2.118 2.343 3.177 5.135 3.177 8.408 0 3.82-1.38 6.9-4.076 9.37-2.246 2.055-4.974 3.082-8.119 3.082-3.658 0-6.675-1.316-9.049-3.948-2.118-2.342-3.177-5.23-3.177-8.568 0-3.69 1.38-6.803 4.075-9.274 2.247-2.054 5.039-3.049 8.344-3.049 3.466 0 6.418 1.316 8.825 3.98Zm-12.997 1.22c-2.471 1.476-3.69 3.85-3.69 7.188 0 2.76.866 4.91 2.599 6.45 1.412 1.284 3.113 1.894 5.07 1.894 2.247 0 4.108-.802 5.584-2.407 1.38-1.476 2.054-3.466 2.054-5.969 0-2.728-.866-4.814-2.567-6.354-1.412-1.284-3.113-1.893-5.135-1.893-1.444 0-2.76.353-3.915 1.09Z" fill="currentColor"/><path d="M98.167 3.049c0 .834-.29 1.54-.867 2.118-.577.61-1.316.898-2.182.898-1.733 0-3.08-1.348-3.08-3.08 0-.835.32-1.54.898-2.119C93.513.29 94.252 0 95.086 0c1.733 0 3.08 1.348 3.08 3.049Z" fill="#FFA300"/><path d="m19.255 3.915-.097.064v29.01h4.525V2.536l-4.428 1.38ZM11.489 19.736l-2.247-.866c-1.636-.61-2.631-1.091-3.08-1.509-.45-.353-.642-.93-.642-1.668 0-1.67 1.38-2.857 3.401-2.857 1.316 0 2.471.642 3.498 1.926l4.012-1.252c-1.701-3.112-4.172-4.685-7.381-4.685-2.15 0-3.98.674-5.52 1.99-1.508 1.283-2.246 2.952-2.246 5.006 0 2.824 1.668 4.878 4.974 6.13l2.47.962c1.541.578 2.568 1.091 3.05 1.54.449.418.705.995.705 1.765 0 .835-.288 1.573-.866 2.247-.642.77-1.605 1.155-2.888 1.155-2.022 0-3.241-.93-4.621-3.594L.16 27.277c1.637 4.3 4.493 6.45 8.473 6.45 2.31 0 4.268-.705 5.84-2.117 1.669-1.476 2.503-3.338 2.503-5.552-.032-2.952-1.636-4.846-5.487-6.322Z" fill="currentColor"/><path d="M6.001 10.27c0 1.668-1.348 2.984-3.017 2.984C1.316 13.254 0 11.906 0 10.237c0-.802.32-1.476.899-2.086a2.86 2.86 0 0 1 2.085-.866c1.67 0 3.017 1.315 3.017 2.984Z" fill="#F7CD00"/><path d="M60.877 29.524c-.61 0-1.06-.064-1.444-.193-.032 0-.065-.032-.097-.032-.385-.128-.738-.257-1.155-.738-.706-.834-.578-3.049-.578-3.466l-.064-8.921v-2.632l-.096-1.668v-.385l.128-1.99V2.696l-4.524 1.412v5.359l-.032 2.407.032 1.668-.032 12.002v.739c0 2.695.577 4.075 1.7 5.295 1.06 1.155 3.177 1.925 4.91 2.021h.29a4.3 4.3 0 0 0 .64.033l4.109-4.108h-3.787Z" fill="currentColor"/><path d="m75.382 19.736-2.246-.866c-1.637-.61-2.632-1.091-3.081-1.509-.45-.353-.642-.93-.642-1.668 0-1.67 1.38-2.857 3.402-2.857 1.315 0 2.47.642 3.498 1.894l4.011-1.252c-1.7-3.113-4.172-4.653-7.38-4.653-2.151 0-3.98.674-5.52 1.99-1.509 1.283-2.247 2.952-2.247 5.006 0 2.824 1.669 4.878 4.974 6.13l2.471.962c1.54.578 2.567 1.091 3.049 1.54.45.418.706.995.706 1.765 0 .835-.289 1.573-.867 2.247-.642.77-1.604 1.155-2.888 1.155l-4.14-.032-4.107 4.108h4.653c.738.032 1.476 0 2.246 0h1.284c2.31 0 4.268-.706 5.84-2.118 1.67-1.476 2.504-3.338 2.504-5.552-.032-2.92-1.67-4.814-5.52-6.29Z" fill="currentColor"/><path d="M61.455 9.435h-11.2v4.204h11.2V9.435Z" fill="#00F490"/>
</symbol>
</svg>
